X:831
T:Reel 831
M:4/4
K:Ddor
L:1/8
cABG c2AB|cAGF EDC2|DA (3GFE FGAB|cAdB cdedc:||2cAGB ADD2|d2fd efge| (3fga ge fdec|defg agfa|gecd eddc|defg agfd| (3ABA ec  (3cBc ec|defg agfa|geag edd2|dAA2 defd|cAAB c2AG|DAA2 defd|eage add2|defg afge|cdef gece|fage fded|cAGE FDD2|
